X: 452
T: Doc Boyd's Jig
B: good tune book
B: tunes
M:6/8
R: jig
Q: 3/8=100
K:Dmajor
V:1 
A|dcd AFA|dfb a2f|gfg Ace|dfd AFA|
 dcd AFA|dfb a2f|gfg Ace|d2d d2:|
 g|b3 bag|faa agf|gfg Ace|ba^g a2a|
 gbb bag|faa agf|gfg Ace|d2 dd2:|
% abcbook-tune_id 63ce6af3fb1388499ca8b3e5
% abcbook-tune_composer_id 
% abcbook-link-0 https://www.youtube.com/watch?v=qQir6GI-wwk
% abcbook-link-title-0 Doc Boyd&#39;s Jig
% abcbook-boost 0
% abcbook-difficulty 0
% abcbook-tags good tune book
% abcbook-tablature 
% abcbook-transpose 
% abcbook-tuning 
% abcbook-lastupdated 1675427463705
% abcbook-soundfonts 
% abcbook-repeats 1


